X: 25289
T: Man Of The House, The
R: reel
M: 4/4
K: Amixolydian
A3 BA2 GE|A2 GA BddB|A3 B AGED|G2GA BddB|
A3 BA2 GE|A2 GA BddB|AB=cB AGED|G2GA Bddg||
e~g3 a3 a|gabg aged|e~g3 a2 ga|bgef gedB|
e~g3 agbg|agbg aged|efgb a2 ga|bgef gedB||

